img/logo.svg

<svg width="64" height="56" viewBox="0 0 64 56" fill="none" xmlns="http://www.w3.org/2000/svg">
<path d="M6.403 52.1875H5.4815L5.339 51H1.064L0.9215 52.1875H0V49.841H0.703C0.747333 49.7713 0.820167 49.6162 0.9215 49.3755C1.02283 49.1348 1.12417 48.796 1.2255 48.359C1.32683 47.9157 1.41233 47.3647 1.482 46.706C1.55167 46.041 1.58333 45.2557 1.577 44.35H5.5575V49.841H6.403V52.1875ZM4.256 49.841V45.509H2.7835C2.7455 46.6363 2.65367 47.561 2.508 48.283C2.36867 48.9987 2.22617 49.518 2.0805 49.841H4.256ZM17.4459 44.35H21.3884V45.509H18.7474V47.0575H21.1509V48.2165H18.7474V49.841H21.4359V51H17.4459V44.35ZM37.4382 45.509H35.5002V51H34.1987V45.509H32.2512V44.35H37.4382V45.509ZM52.2997 47.314L52.3757 46.4495H52.3282L51.8817 47.3425L49.4022 51H48.4237V44.35H49.7252V47.9695L49.6302 48.8625H49.6872L50.1527 47.941L52.6322 44.35H53.6012V51H52.2997V47.314Z" fill="#174479"/>
<path d="M9.81282 14.442H14.679L9.67207 0H4.98684L0 14.442H4.80587L5.40912 12.0694H9.18947L9.81282 14.442ZM6.27377 8.76836L7.29929 4.80713L8.32481 8.76836H6.27377Z" fill="#174479"/>
<path d="M15.4826 14.442H19.8461V9.01594C19.8461 7.69553 20.5901 7.01469 21.7764 7.01469C22.5204 7.01469 23.0835 7.20038 23.3248 7.3448L23.1237 3.73429C22.9829 3.6105 22.5607 3.46608 21.9775 3.46608C21.0324 3.46608 20.2683 4.0025 19.8461 4.76586L19.4439 3.71366H15.4826V14.442Z" fill="#174479"/>
<path d="M29.1719 14.6896C30.4186 14.6896 31.5849 14.3801 32.1278 14.1532L32.6908 10.7284C32.1881 10.9553 31.1425 11.2441 30.1974 11.2441C28.83 11.2441 28.2469 10.6458 28.2469 9.13973C28.2469 7.46858 28.7898 6.82901 30.0365 6.82901C30.9414 6.82901 31.9267 7.15911 32.4294 7.40669L32.2283 4.0025C31.6653 3.77555 30.4588 3.46608 29.1719 3.46608C25.5122 3.46608 23.8633 5.32291 23.8633 9.13973C23.8633 12.874 25.5122 14.6896 29.1719 14.6896Z" fill="#174479"/>
<path d="M40.585 11.1822C39.7003 11.1822 39.1976 10.8728 39.1976 9.88246V6.70522H41.7714V3.71366H39.1976V0.618944L34.8341 1.4442V3.71366H33.326V6.70522H34.8341V10.0888C34.8341 13.2867 36.4226 14.669 39.0166 14.669C40.0823 14.669 41.0475 14.4214 41.4899 14.2357L42.073 10.8728C41.7714 10.9966 41.1682 11.1822 40.585 11.1822Z" fill="#174479"/>
<path d="M43.1848 2.47577H47.5483V0H43.1848V2.47577ZM43.1848 14.442H47.5483V3.71366H43.1848V14.442Z" fill="#174479"/>
<path d="M54.2821 14.6896C55.5288 14.6896 56.695 14.3801 57.238 14.1532L57.801 10.7284C57.2983 10.9553 56.2527 11.2441 55.3076 11.2441C53.9402 11.2441 53.3571 10.6458 53.3571 9.13973C53.3571 7.46858 53.9 6.82901 55.1467 6.82901C56.0516 6.82901 57.0369 7.15911 57.5396 7.40669L57.3385 4.0025C56.7755 3.77555 55.569 3.46608 54.2821 3.46608C50.6224 3.46608 48.9735 5.32291 48.9735 9.13973C48.9735 12.874 50.6224 14.6896 54.2821 14.6896Z" fill="#174479"/>
<path d="M12.447 32.7524L9.95358 27.3057C11.2606 26.5011 11.9041 25.1188 11.9041 23.2413C11.9041 20.1466 10.1949 18.3104 6.61561 18.3104H0V32.7524H4.58468V28.0897H5.71073L7.50037 32.7524H12.447ZM4.58468 22.0241H6.19334C6.95745 22.0241 7.3194 22.478 7.3194 23.2826C7.3194 24.0872 6.95745 24.5411 6.19334 24.5411H4.58468V22.0241Z" fill="#174479"/>
<path d="M16.503 33C17.7699 33 18.6546 32.5048 19.4187 31.7002L19.8209 32.7524H23.7822V22.0241H19.4187V28.6468C19.4187 29.2863 19.1976 29.6164 18.6546 29.6164C18.0715 29.6164 17.8905 29.2863 17.8905 28.6468V22.0241H13.527V29.8434C13.527 31.6796 14.5123 33 16.503 33Z" fill="#174479"/>
<path d="M29.5516 32.9587C33.1912 32.9587 34.5183 31.7415 34.5183 29.472C34.5183 27.4089 33.6738 26.3567 31.7032 25.9647L30.2353 25.6758C29.5918 25.552 29.451 25.4283 29.451 25.1807C29.451 24.9537 29.632 24.8299 30.1146 24.8299C31.6831 24.8299 33.2314 25.2632 33.9553 25.5933L33.7743 22.478C33.0906 22.1891 31.5825 21.8178 29.9135 21.8178C26.7766 21.8178 25.3288 23.0556 25.3288 25.2632C25.3288 27.2851 26.1131 28.296 28.2043 28.7293L29.6923 29.0388C30.2956 29.1419 30.4162 29.2657 30.4162 29.4927C30.4162 29.7402 30.2151 29.8847 29.6722 29.8847C27.8223 29.8847 26.0527 29.3689 25.2484 28.9975L25.7712 32.3398C26.4951 32.608 28.0233 32.9587 29.5516 32.9587Z" fill="#174479"/>
<path d="M39.8853 32.9587C43.5249 32.9587 44.8521 31.7415 44.8521 29.472C44.8521 27.4089 44.0075 26.3567 42.0369 25.9647L40.569 25.6758C39.9255 25.552 39.7848 25.4283 39.7848 25.1807C39.7848 24.9537 39.9658 24.8299 40.4484 24.8299C42.0168 24.8299 43.5651 25.2632 44.289 25.5933L44.1081 22.478C43.4244 22.1891 41.9163 21.8178 40.2473 21.8178C37.1104 21.8178 35.6626 23.0556 35.6626 25.2632C35.6626 27.2851 36.4468 28.296 38.5381 28.7293L40.0261 29.0388C40.6293 29.1419 40.75 29.2657 40.75 29.4927C40.75 29.7402 40.5489 29.8847 40.006 29.8847C38.156 29.8847 36.3865 29.3689 35.5822 28.9975L36.105 32.3398C36.8289 32.608 38.3571 32.9587 39.8853 32.9587Z" fill="#174479"/>
<path d="M46.2578 20.7862H50.6212V18.3104H46.2578V20.7862ZM46.2578 32.7524H50.6212V22.0241H46.2578V32.7524Z" fill="#174479"/>
<path d="M55.123 33C56.611 33 57.5159 32.2573 57.7773 31.7002L58.1794 32.7524H62V26.1297C62 23.3857 60.4517 21.8178 56.8925 21.8178C55.4045 21.8178 54.0371 22.0241 53.4138 22.1891L52.8507 25.5933C53.4741 25.3664 54.761 25.0775 55.9876 25.0775C57.2947 25.0775 57.7773 25.3457 57.7773 26.0885V26.1297H55.8268C53.2529 26.1297 51.966 27.3882 51.966 29.5545C51.966 31.7002 53.0317 33 55.123 33ZM56.792 30.0291C56.2289 30.0291 55.867 29.7815 55.867 29.1419C55.867 28.523 56.1887 28.2341 56.792 28.2341H57.7773V29.0181C57.7773 29.7609 57.3952 30.0291 56.792 30.0291Z" fill="#174479"/>
</svg>

<svg width="64" height="56" fill="none" xmlns="http://www.w3.org/2000/svg"><path d="M6.403 52.188h-.921L5.338 51H1.064l-.143 1.188H0V49.84h.703c.044-.07.117-.225.219-.465.1-.241.202-.58.303-1.017.102-.443.187-.994.257-1.653.07-.665.101-1.45.095-2.356h3.98v5.491h.846v2.346zM4.256 49.84v-4.332H2.783c-.038 1.127-.13 2.052-.275 2.774-.14.716-.282 1.235-.428 1.558h2.176zm13.19-5.491h3.942v1.159h-2.64v1.548h2.403v1.16h-2.404v1.624h2.689V51h-3.99v-6.65zm19.992 1.159H35.5V51h-1.3v-5.491h-1.95V44.35h5.187v1.159zM52.3 47.314l.076-.864h-.048l-.446.892L49.402 51h-.978v-6.65h1.301v3.62l-.095.892h.057l.466-.921 2.48-3.591h.968V51H52.3v-3.686zM9.813 14.442h4.866L9.672 0H4.987L0 14.442h4.806l.603-2.373h3.78l.624 2.373zm-3.54-5.674L7.3 4.808l1.026 3.96H6.274zm9.21 5.674h4.363V9.016c0-1.32.744-2.001 1.93-2.001.744 0 1.308.185 1.549.33l-.201-3.61c-.141-.124-.563-.269-1.146-.269-.946 0-1.71.537-2.132 1.3l-.402-1.052h-3.961v10.728zm13.689.248c1.247 0 2.413-.31 2.956-.537l.563-3.425c-.503.227-1.549.516-2.494.516-1.367 0-1.95-.598-1.95-2.104 0-1.671.543-2.311 1.79-2.311.904 0 1.89.33 2.392.578l-.2-3.404c-.564-.227-1.77-.537-3.057-.537-3.66 0-5.309 1.857-5.309 5.674 0 3.734 1.65 5.55 5.309 5.55zm11.413-3.508c-.885 0-1.387-.31-1.387-1.3V6.705h2.573V3.714h-2.573V.619l-4.364.825v2.27h-1.508v2.991h1.508v3.384c0 3.198 1.589 4.58 4.183 4.58 1.065 0 2.03-.248 2.473-.433l.583-3.363c-.302.124-.905.31-1.488.31zm2.6-8.706h4.363V0h-4.363v2.476zm0 11.966h4.363V3.714h-4.363v10.728zm11.097.248c1.247 0 2.413-.31 2.956-.537l.563-3.425c-.503.227-1.548.516-2.493.516-1.368 0-1.95-.598-1.95-2.104 0-1.671.542-2.311 1.789-2.311.905 0 1.89.33 2.393.578l-.201-3.404c-.563-.227-1.77-.537-3.057-.537-3.66 0-5.308 1.857-5.308 5.674 0 3.734 1.648 5.55 5.308 5.55zM12.447 32.752l-2.493-5.446c1.307-.805 1.95-2.187 1.95-4.065 0-3.094-1.71-4.93-5.288-4.93H0v14.441h4.585V28.09H5.71l1.79 4.662h4.946zM4.585 22.024h1.608c.764 0 1.126.454 1.126 1.259 0 .804-.362 1.258-1.126 1.258H4.585v-2.517zM16.503 33c1.267 0 2.152-.495 2.916-1.3l.402 1.052h3.961V22.024H19.42v6.623c0 .64-.221.97-.764.97-.584 0-.765-.33-.765-.97v-6.623h-4.363v7.82c0 1.836.985 3.156 2.976 3.156zm13.049-.041c3.64 0 4.966-1.218 4.966-3.487 0-2.063-.844-3.115-2.815-3.507l-1.468-.29c-.643-.123-.784-.247-.784-.494 0-.227.181-.351.664-.351 1.568 0 3.116.433 3.84.763l-.18-3.115c-.684-.289-2.192-.66-3.861-.66-3.137 0-4.585 1.238-4.585 3.445 0 2.022.784 3.033 2.875 3.466l1.488.31c.604.103.724.227.724.454 0 .247-.2.392-.744.392-1.85 0-3.62-.516-4.424-.888l.523 3.343c.724.268 2.252.619 3.78.619zm10.333 0c3.64 0 4.967-1.218 4.967-3.487 0-2.063-.844-3.115-2.815-3.507l-1.468-.29c-.644-.123-.784-.247-.784-.494 0-.227.18-.351.663-.351 1.569 0 3.117.433 3.841.763l-.18-3.115c-.685-.289-2.193-.66-3.862-.66-3.137 0-4.584 1.238-4.584 3.445 0 2.022.784 3.033 2.875 3.466l1.488.31c.603.103.724.227.724.454 0 .247-.201.392-.744.392-1.85 0-3.62-.516-4.424-.888l.523 3.343c.724.268 2.252.619 3.78.619zm6.373-12.173h4.363V18.31h-4.363v2.476zm0 11.966h4.363V22.024h-4.363v10.728zm8.865.248c1.488 0 2.393-.743 2.654-1.3l.402 1.052H62V26.13c0-2.744-1.548-4.312-5.108-4.312-1.488 0-2.855.206-3.478.371l-.563 3.404c.623-.227 1.91-.515 3.137-.515 1.307 0 1.79.268 1.79 1.01v.042h-1.951c-2.574 0-3.861 1.258-3.861 3.425 0 2.145 1.066 3.445 3.157 3.445zm1.669-2.97c-.563 0-.925-.248-.925-.888 0-.619.322-.908.925-.908h.985v.784c0 .743-.382 1.011-.985 1.011z" fill="#174479"/></svg>
